src/symbolic/apps/utilities-tweak-tool-symbolic.svg

<svg width="16" height="16" version="1.1" xmlns="http://www.w3.org/2000/svg">
 <path d="m7.5996093-2e-7c-0.8864 0-1.599609 0.7132094-1.599609 1.5996094v0.75a6 6 0 0 0-1.892578 1.09375l-0.650391-0.375c-0.767645-0.4432-1.742347-0.1817077-2.185547 0.5859375l-0.40039004 0.6914062c-0.4432 0.7676452-0.181708 1.7423469 0.58593704 2.1855469l0.648438 0.375a6 6 0 0 0-0.105469 1.09375 6 6 0 0 0 0.105469 1.09375l-0.648438 0.375c-0.76764504 0.4432002-1.029137 1.4179022-0.58593704 2.1855472l0.40039004 0.691406c0.4432 0.767645 1.417902 1.029138 2.185547 0.585938l0.646484-0.373047a6 6 0 0 0 1.896485 1.089844v-2.203126c-1.190604-0.692897-2-1.9684913-2-3.4453122 0.0018-1.4363122 0.776257-2.7431048 2-3.4511719v2.4511719l2 1.5 1.9999997-1.5v-2.453125c1.224426 0.7086778 1.999277 2.015858 2 3.453125 0 1.4768209-0.809396 2.7524152-2 3.4453122v2.199219a6 6 0 0 0 1.892578-1.08789l0.650391 0.375c0.767644 0.4432 1.742347 0.181707 2.185547-0.585938l0.40039-0.691406c0.4432-0.767645 0.181707-1.742347-0.585937-2.1855472l-0.648438-0.375a6 6 0 0 0 0.105469-1.09375 6 6 0 0 0-0.105469-1.09375l0.648438-0.375c0.767644-0.4432 1.029137-1.4179017 0.585937-2.1855469l-0.40039-0.6914062c-0.4432-0.7676452-1.417903-1.0291375-2.185547-0.5859375l-0.646485 0.3730468a6 6 0 0 0-1.896484-1.0898437v-0.7519531c0-0.8864-0.7132097-1.5996094-1.5996097-1.5996094zm0.400391 10.199219c-0.554 0-1 0.357581-1 0.800781v3.199219c0 0.4432 0.446 0.800781 1 0.800781s1-0.357581 1-0.800781v-3.199219c0-0.4432-0.446-0.800781-1-0.800781z" style="fill:#444444"/>
</svg>

<svg width="16" height="16" xmlns="http://www.w3.org/2000/svg"><path d="M7.6 0C6.713 0 6 .713 6 1.6v.75a6 6 0 0 0-1.893 1.093l-.65-.375a1.596 1.596 0 0 0-2.186.586l-.4.692a1.596 1.596 0 0 0 .586 2.185l.648.375A6 6 0 0 0 2 8a6 6 0 0 0 .105 1.094l-.648.375a1.596 1.596 0 0 0-.586 2.185l.4.692a1.596 1.596 0 0 0 2.186.586l.647-.373A6 6 0 0 0 6 13.649v-2.204C4.81 10.752 4 9.477 4 8a3.995 3.995 0 0 1 2-3.451V7l2 1.5L10 7V4.547c1.224.709 2 2.016 2 3.453 0 1.477-.81 2.752-2 3.445v2.2a6 6 0 0 0 1.893-1.088l.65.375a1.596 1.596 0 0 0 2.186-.586l.4-.692a1.596 1.596 0 0 0-.586-2.185l-.648-.375A6 6 0 0 0 14 8a6 6 0 0 0-.105-1.094l.648-.375a1.596 1.596 0 0 0 .586-2.185l-.4-.692a1.596 1.596 0 0 0-2.186-.586l-.647.373A6 6 0 0 0 10 2.351V1.6C10 .713 9.287 0 8.4 0zM8 10.2c-.554 0-1 .357-1 .8v3.2c0 .442.446.8 1 .8s1-.358 1-.8V11c0-.443-.446-.8-1-.8z" fill="#444"/></svg>
